X: 5
T: The Musical Priest
R: reel
M: 4/4
L: 1/8
K: Bmin
|FBBA BcdB|cBAc ecBA|FBBA BcdB|cBAc B2BA |
FBBA BcdB|cBAc ecBA| FAcB Adfd | ceac B2 |
Bc|:d2dc dfed|(3cBA eA fAec|d2dc def^g|afec dBB2:|
b ~B3 b ~B3|cBAc ecBA|b ~B3 b ~B3|cBAc B2de|
(3fga ba baf^g|afec ABce |~d3e f^gaf|ecAc B2BA|


Tune 73	Setting 12544

